Hatter-kde/actions/16/distribute-horizontal-right.svg

<?xml version="1.0" encoding="UTF-8"?>
<svg viewBox="0 0 16 16" xmlns="http://www.w3.org/2000/svg">
 <defs id="defs3051">
  <style id="current-color-scheme" type="text/css">.ColorScheme-Text {
        color:#363636;
      }</style>
 </defs>
 <path class="ColorScheme-Text" d="m9 2-3 2 3 2v-4zm1 0v4l3-2-3-2zm-5 3v1 1h-1-1-2v6h2 1 1v1h1v-1-6-1-1h-1zm8 0v2h-4v5 1h4v1h1v-9h-1zm-11 3h3v4h-3v-4zm8 0h3v4h-3v-4z" fill="currentColor"/>
</svg>

<svg xmlns="http://www.w3.org/2000/svg" viewBox="0 0 16 16">
  <defs id="defs3051">
    <style type="text/css" id="current-color-scheme">
      .ColorScheme-Text {
        color:#363636;
      }
      </style>
  </defs>
 <path style="fill:currentColor;fill-opacity:1;stroke:none" 
     d="M 9 2 L 6 4 L 9 6 L 9 2 z M 10 2 L 10 6 L 13 4 L 10 2 z M 5 5 L 5 6 L 5 7 L 4 7 L 3 7 L 1 7 L 1 13 L 3 13 L 4 13 L 5 13 L 5 14 L 6 14 L 6 13 L 6 7 L 6 6 L 6 5 L 5 5 z M 13 5 L 13 7 L 9 7 L 9 12 L 9 13 L 13 13 L 13 14 L 14 14 L 14 5 L 13 5 z M 2 8 L 5 8 L 5 12 L 2 12 L 2 8 z M 10 8 L 13 8 L 13 12 L 10 12 L 10 8 z "
     class="ColorScheme-Text"
     />
</svg>
